!! 00053] TT[KA
!! Kassette von Frau Li Wenzhen, Peking - Zum Gesangsheft
!!!OTL: Yaolan qu
!!!ARE: Heilongjiang, Heihe
!! Ethnic Group: Elunchun
!! MM,, Seite 22, 2
!!!SCT: C1124
!!!YEM: Copyright 1995, estate of Helmut Schaffrath.
**kern
*ICvox
*Ivox
!! Mixed meters:  3/4; 4/4
*M4/4
*k[b-]
*F:
{2g
8cc
8r}
=1
{8a
16cc
16a
8g
16a
16g
8f
8d
=2
2f
8f
8r}
=3
{8f
8g
8a
16cc
16a
8g
8a
16a
16g
8f
=4
*M3/4
2g
8cc
8r}
=5
*M4/4
{8g
8a
8.cc
16a
8g
8a
8g
16f
16d
=6
*M3/4
2f
8f
8r}
=7
*M4/4
{8f
8g
8a
16cc
16a
8g
8a
16a
16g
8f
=8
*M3/4
2g
8cc
8r}
=9
*M4/4
{8g
8a
8.cc
16a
8g
8a
8g
16f
16d
=10
*M3/4
2f
8f
8r}
=11
{2g
8cc
8r}
=12
{8a
16cc
16a
8g
16a
16g
8f
8d
=13
2f
8f
8r}
==
!!!AGN: Cuimian qu. Muqin hong haizi shuiliao
!! Die Stuecke sind meist uebersteuert, also verzerrt.
!!    Wenig Verzierungen.
!!!ONB: ESAC (Essen Associative Code) Database: CHINA
!!!AMT: irregular
!!!AIN: vox
!!!EED: Helmut Schaffrath
!!!EEV: 1.0
*-
